X:1
T:Shenei Zeitim
C:Traditionally Amsterdam
S: I.Oppenheim <i.oppenheim:xs4all.nl> abcusers 2003-7-22
M:4/4
L:1/8
K:C
G|G2G2A4|(FEF) D (A2G) G|c2c2(B2c2)|(f2e2)e2d G|
w:She-nei zei-tim nich-__ra-tim_\
w:be-gan na-'ul_ yats-_hi-ru. Le-
G2G G A4|(FE) F D (A2G) d|d2g g (fedc)|(B2A2)A2G3/2 G/2|
w:rosh ke-ha-tim ve-_'ef-ra-tim_ she-tei a-ta-rot___ yach-_ti-ru. Ve-
g2 d d (_e2c2)|(_ec) B c (dBG) G|g2d2(_e3c)|(dcBc) d2d2|
w:al me-no-rah_ ha-_te-ho-rah__ ke-mo nei-rot_ yaz-___hi-ru.
c4(BAG) G|(cde) c (dBG) G|A3/2 A/2 G (3G/2 G/2 G/2 (Aagf)|e2d2c4|]
w:Hen, hen__ ba-ma-__cha-neh__ el mul pe-nei ha-me-no-rah___ ya-'i-ru.
>>
